X:17243
T:The Star of Munster
M:4/4
A:Ireland
R:reel
K:G
ed|"Am"c2 Ac "G"BAGB|"Am"AGEF "G"GEDG|"Am"EAAG ABcd|"G"eaaf gedB|
"Am"c2Ac "G"BAGB|"Am"AGEF "G"GEDG|"Am"EAAG ABcd|"G"ecdB "Am"A2:|
Bd|:"Am"eaab ageg|agbg agef|"G"gfga gfef|(3gfe af gfed|
"Am"eaab ageg|agbg agef|"G"g2 ge a2 ga|~b3 a gfed:|
